lib/healthicons/icons/outline/typography/X.svg

<svg fill="none" height="48" viewBox="0 0 48 48" width="48" xmlns="http://www.w3.org/2000/svg"><path clip-rule="evenodd" d="m31.6954 10.0795c1.0607-1.27281 2.9524-1.44478 4.2252-.38409 1.2729 1.06069 1.4448 2.95239.3841 4.22519l-8.3995 10.0795 8.3995 10.0794c1.0607 1.2729.8888 3.1646-.3841 4.2252-1.2728 1.0607-3.1645.8888-4.2252-.3841l-7.6953-9.2344-7.6954 9.2344c-1.0607 1.2729-2.9523 1.4448-4.2252.3841-1.2728-1.0606-1.4448-2.9523-.3841-4.2252l8.3996-10.0794-8.3996-10.0795c-1.0607-1.2728-.8887-3.1645.3841-4.22519 1.2729-1.06069 3.1645-.88872 4.2252.38409l7.6954 9.2344zm2.9449 1.1524c-.4243-.3536-1.0549-.2963-1.4084.128l-.7683-.6402.7683.6402-8.4636 10.1563c-.19.228-.4714.3598-.7682.3598s-.5783-.1318-.7682-.3598l-8.4636-10.1563c-.3536-.4243-.9841-.4816-1.4084-.128-.4243.3535-.4816.9841-.128 1.4084l8.933 10.7196c.309.3708.309.9095 0 1.2804l-8.933 10.7196c-.3536.4243-.2963 1.0548.128 1.4084s1.0548.2962 1.4084-.128l8.4636-10.1563c.1899-.228.4714-.3598.7682-.3598s.5782.1318.7682.3598l8.4636 10.1563c.3535.4242.9841.4816 1.4084.128.4242-.3536.4816-.9841.128-1.4084l-8.933-10.7196c-.3091-.3709-.3091-.9096 0-1.2804l8.933-10.7196c.3536-.4243.2962-1.0549-.128-1.4084z" fill="#333" fill-rule="evenodd"/></svg>

<svg width="48" height="48" viewBox="0 0 48 48" fill="none" xmlns="http://www.w3.org/2000/svg">
<path fill-rule="evenodd" clip-rule="evenodd" d="M31.6954 10.0795C32.7561 8.80669 34.6478 8.63472 35.9206 9.69541C37.1935 10.7561 37.3654 12.6478 36.3047 13.9206L27.9052 24.0001L36.3047 34.0795C37.3654 35.3524 37.1935 37.2441 35.9206 38.3047C34.6478 39.3654 32.7561 39.1935 31.6954 37.9206L24.0001 28.6862L16.3047 37.9206C15.244 39.1935 13.3524 39.3654 12.0795 38.3047C10.8067 37.2441 10.6347 35.3524 11.6954 34.0795L20.095 24.0001L11.6954 13.9206C10.6347 12.6478 10.8067 10.7561 12.0795 9.69541C13.3524 8.63472 15.244 8.80669 16.3047 10.0795L24.0001 19.3139L31.6954 10.0795ZM34.6403 11.2319C34.216 10.8783 33.5854 10.9356 33.2319 11.3599L32.4636 10.7197L33.2319 11.3599L24.7683 21.5162C24.5783 21.7442 24.2969 21.876 24.0001 21.876C23.7033 21.876 23.4218 21.7442 23.2319 21.5162L14.7683 11.3599C14.4147 10.9356 13.7842 10.8783 13.3599 11.2319C12.9356 11.5854 12.8783 12.216 13.2319 12.6403L22.1649 23.3599C22.4739 23.7307 22.4739 24.2694 22.1649 24.6403L13.2319 35.3599C12.8783 35.7842 12.9356 36.4147 13.3599 36.7683C13.7842 37.1219 14.4147 37.0645 14.7683 36.6403L23.2319 26.484C23.4218 26.256 23.7033 26.1242 24.0001 26.1242C24.2969 26.1242 24.5783 26.256 24.7683 26.484L33.2319 36.6403C33.5854 37.0645 34.216 37.1219 34.6403 36.7683C35.0645 36.4147 35.1219 35.7842 34.7683 35.3599L25.8353 24.6403C25.5262 24.2694 25.5262 23.7307 25.8353 23.3599L34.7683 12.6403C35.1219 12.216 35.0645 11.5854 34.6403 11.2319Z" fill="#333333"/>
</svg>
